!!!OTL: ES WAR EIN KOENIG IN THULE
!!!ARE: Europa, Mitteleuropa, Deutschland
!!!SCT: B0110A
!!!YEM: Copyright 1995, estate of Helmut Schaffrath.
**kern
*ICvox
*Ivox
*M6/8
*k[b-e-]
*g:
{8d
=1
4g
8b-
8.dd
16b-
8g
=2
4.a
8d
8r}
{8dd
=3
4g
8g
8.a
16g
8a
=4
4.b-
4r}
{8a
=5
4dd
8cc
8.b-
16cc
8a
=6
4.g
8e-
8r}
{16g
16a
=7
8.b-
16a
8g
4g
8f#
=8
4.g
4r}
==
!!!AGN: Ballade, Romanze
!!!ONB: ESAC (Essen Associative Code) Database: BOEHME
!!!AMT: compound duple
!!!AIN: vox
!!!EED: Helmut Schaffrath
!!!EEV: 1.0
*-
